public/images/svg/25.svg

<svg class="recharts-surface" width="96" height="56" viewBox="0 0 96 56" style="width: 100%; height: 100%;"><title></title><desc></desc><defs><clipPath id="recharts33-clip"><rect x="5" y="5" height="46" width="86"></rect></clipPath></defs><g class="recharts-layer recharts-bar"><g class="recharts-layer recharts-bar-rectangles"><g class="recharts-layer"><g class="recharts-layer recharts-bar-rectangle"><path x="8" y="5" width="5" height="46" radius="5" fill="#3872FA" class="recharts-rectangle" d="M 8,7.5
            A 2.5,2.5,0,0,1,10.5,5
            L 10.5,5
            A 2.5,2.5,0,0,1,13,7.5
            L 13,48.5
            A 2.5,2.5,0,0,1,10.5,51
            L 10.5,51
            A 2.5,2.5,0,0,1,8,48.5 Z"></path></g><g class="recharts-layer recharts-bar-rectangle"><path x="20.285714285714285" y="16.5" width="5" height="34.5" radius="5" fill="#3872FA" class="recharts-rectangle" d="M 20.285714285714285,19
            A 2.5,2.5,0,0,1,22.785714285714285,16.5
            L 22.785714285714285,16.5
            A 2.5,2.5,0,0,1,25.285714285714285,19
            L 25.285714285714285,48.5
            A 2.5,2.5,0,0,1,22.785714285714285,51
            L 22.785714285714285,51
            A 2.5,2.5,0,0,1,20.285714285714285,48.5 Z"></path></g><g class="recharts-layer recharts-bar-rectangle"><path x="32.57142857142857" y="28" width="5" height="23" radius="5" fill="#3872FA" class="recharts-rectangle" d="M 32.57142857142857,30.5
            A 2.5,2.5,0,0,1,35.07142857142857,28
            L 35.07142857142857,28
            A 2.5,2.5,0,0,1,37.57142857142857,30.5
            L 37.57142857142857,48.5
            A 2.5,2.5,0,0,1,35.07142857142857,51
            L 35.07142857142857,51
            A 2.5,2.5,0,0,1,32.57142857142857,48.5 Z"></path></g><g class="recharts-layer recharts-bar-rectangle"><path x="44.85714285714286" y="19.03" width="5" height="31.97" radius="5" fill="#3872FA" class="recharts-rectangle" d="M 44.85714285714286,21.53
            A 2.5,2.5,0,0,1,47.35714285714286,19.03
            L 47.35714285714286,19.03
            A 2.5,2.5,0,0,1,49.85714285714286,21.53
            L 49.85714285714286,48.5
            A 2.5,2.5,0,0,1,47.35714285714286,51
            L 47.35714285714286,51
            A 2.5,2.5,0,0,1,44.85714285714286,48.5 Z"></path></g><g class="recharts-layer recharts-bar-rectangle"><path x="57.142857142857146" y="29.265000000000004" width="5" height="21.734999999999996" radius="5" fill="#3872FA" class="recharts-rectangle" d="M 57.142857142857146,31.765000000000004
            A 2.5,2.5,0,0,1,59.642857142857146,29.265000000000004
            L 59.642857142857146,29.265000000000004
            A 2.5,2.5,0,0,1,62.142857142857146,31.765000000000004
            L 62.142857142857146,48.5
            A 2.5,2.5,0,0,1,59.642857142857146,51
            L 59.642857142857146,51
            A 2.5,2.5,0,0,1,57.142857142857146,48.5 Z"></path></g><g class="recharts-layer recharts-bar-rectangle"><path x="69.42857142857143" y="23.515" width="5" height="27.485" radius="5" fill="#3872FA" class="recharts-rectangle" d="M 69.42857142857143,26.015
            A 2.5,2.5,0,0,1,71.92857142857143,23.515
            L 71.92857142857143,23.515
            A 2.5,2.5,0,0,1,74.42857142857143,26.015
            L 74.42857142857143,48.5
            A 2.5,2.5,0,0,1,71.92857142857143,51
            L 71.92857142857143,51
            A 2.5,2.5,0,0,1,69.42857142857143,48.5 Z"></path></g><g class="recharts-layer recharts-bar-rectangle"><path x="81.71428571428572" y="10.864999999999995" width="5" height="40.135000000000005" radius="5" fill="#3872FA" class="recharts-rectangle" d="M 81.71428571428572,13.364999999999995
            A 2.5,2.5,0,0,1,84.21428571428572,10.864999999999995
            L 84.21428571428572,10.864999999999995
            A 2.5,2.5,0,0,1,86.71428571428572,13.364999999999995
            L 86.71428571428572,48.5
            A 2.5,2.5,0,0,1,84.21428571428572,51
            L 84.21428571428572,51
            A 2.5,2.5,0,0,1,81.71428571428572,48.5 Z"></path></g></g></g><g class="recharts-layer"></g></g></svg>

<?xml version="1.0" encoding="UTF-8" standalone="no"?>
<svg
   class="recharts-surface"
   width="78.714287"
   height="46"
   viewBox="0 0 78.714287 46"
   version="1.1"
   id="svg47"
   sodipodi:docname="155d15e8222d2d4b5f040d6a037c092f.svg"
   xmlns:inkscape="http://www.inkscape.org/namespaces/inkscape"
   xmlns:sodipodi="http://sodipodi.sourceforge.net/DTD/sodipodi-0.dtd"
   xmlns="http://www.w3.org/2000/svg"
   xmlns:svg="http://www.w3.org/2000/svg">
  <sodipodi:namedview
     id="namedview49"
     pagecolor="#ffffff"
     bordercolor="#666666"
     borderopacity="1.0"
     inkscape:pageshadow="2"
     inkscape:pageopacity="0.0"
     inkscape:pagecheckerboard="0" />
  <title
     id="title2" />
  <desc
     id="desc4" />
  <defs
     id="defs9">
    <clipPath
       id="recharts33-clip">
      <rect
         x="5"
         y="5"
         height="46"
         width="86"
         id="rect6" />
    </clipPath>
  </defs>
  <g
     class="recharts-layer recharts-bar"
     id="g45"
     transform="translate(-8,-5)">
    <g
       class="recharts-layer recharts-bar-rectangles"
       id="g41">
      <g
         class="recharts-layer"
         id="g39">
        <g
           class="recharts-layer recharts-bar-rectangle"
           id="g13">
          <path
             x="8"
             y="5"
             width="5"
             height="46"
             radius="5"
             fill="#3872fa"
             class="recharts-rectangle"
             d="M 8,7.5 A 2.5,2.5 0 0 1 10.5,5 V 5 A 2.5,2.5 0 0 1 13,7.5 v 41 A 2.5,2.5 0 0 1 10.5,51 v 0 A 2.5,2.5 0 0 1 8,48.5 Z"
             id="path11" />
        </g>
        <g
           class="recharts-layer recharts-bar-rectangle"
           id="g17">
          <path
             x="20.285714285714285"
             y="16.5"
             width="5"
             height="34.5"
             radius="5"
             fill="#3872fa"
             class="recharts-rectangle"
             d="m 20.285714,19 a 2.5,2.5 0 0 1 2.5,-2.5 v 0 a 2.5,2.5 0 0 1 2.5,2.5 v 29.5 a 2.5,2.5 0 0 1 -2.5,2.5 v 0 a 2.5,2.5 0 0 1 -2.5,-2.5 z"
             id="path15" />
        </g>
        <g
           class="recharts-layer recharts-bar-rectangle"
           id="g21">
          <path
             x="32.57142857142857"
             y="28"
             width="5"
             height="23"
             radius="5"
             fill="#3872fa"
             class="recharts-rectangle"
             d="m 32.571429,30.5 a 2.5,2.5 0 0 1 2.5,-2.5 v 0 a 2.5,2.5 0 0 1 2.5,2.5 v 18 a 2.5,2.5 0 0 1 -2.5,2.5 v 0 a 2.5,2.5 0 0 1 -2.5,-2.5 z"
             id="path19" />
        </g>
        <g
           class="recharts-layer recharts-bar-rectangle"
           id="g25">
          <path
             x="44.85714285714286"
             y="19.03"
             width="5"
             height="31.97"
             radius="5"
             fill="#3872fa"
             class="recharts-rectangle"
             d="m 44.857143,21.53 a 2.5,2.5 0 0 1 2.5,-2.5 v 0 a 2.5,2.5 0 0 1 2.5,2.5 V 48.5 a 2.5,2.5 0 0 1 -2.5,2.5 v 0 a 2.5,2.5 0 0 1 -2.5,-2.5 z"
             id="path23" />
        </g>
        <g
           class="recharts-layer recharts-bar-rectangle"
           id="g29">
          <path
             x="57.142857142857146"
             y="29.265000000000004"
             width="5"
             height="21.734999999999996"
             radius="5"
             fill="#3872fa"
             class="recharts-rectangle"
             d="m 57.142857,31.765 a 2.5,2.5 0 0 1 2.5,-2.5 v 0 a 2.5,2.5 0 0 1 2.5,2.5 V 48.5 a 2.5,2.5 0 0 1 -2.5,2.5 v 0 a 2.5,2.5 0 0 1 -2.5,-2.5 z"
             id="path27" />
        </g>
        <g
           class="recharts-layer recharts-bar-rectangle"
           id="g33">
          <path
             x="69.42857142857143"
             y="23.515"
             width="5"
             height="27.485"
             radius="5"
             fill="#3872fa"
             class="recharts-rectangle"
             d="m 69.428571,26.015 a 2.5,2.5 0 0 1 2.5,-2.5 v 0 a 2.5,2.5 0 0 1 2.5,2.5 V 48.5 a 2.5,2.5 0 0 1 -2.5,2.5 v 0 a 2.5,2.5 0 0 1 -2.5,-2.5 z"
             id="path31" />
        </g>
        <g
           class="recharts-layer recharts-bar-rectangle"
           id="g37">
          <path
             x="81.71428571428572"
             y="10.864999999999995"
             width="5"
             height="40.135000000000005"
             radius="5"
             fill="#3872fa"
             class="recharts-rectangle"
             d="m 81.714286,13.365 a 2.5,2.5 0 0 1 2.5,-2.5 v 0 a 2.5,2.5 0 0 1 2.5,2.5 V 48.5 a 2.5,2.5 0 0 1 -2.5,2.5 v 0 a 2.5,2.5 0 0 1 -2.5,-2.5 z"
             id="path35" />
        </g>
      </g>
    </g>
    <g
       class="recharts-layer"
       id="g43" />
  </g>
</svg>
